library/css/icons/svgs/fi-pause.svg

<svg xmlns="http://www.w3.org/2000/svg" width="100" height="100" viewBox="0 0 100 100"><path d="M40.531 19.959l-.283.029v-.029h-10.337c-1.194 0-2.163.968-2.163 2.163v.005h-.001v55.743h.001l-.001.009c0 1.194.969 2.162 2.163 2.162h10.62c1.194 0 2.162-.968 2.162-2.162l-.001-.009h.001v-55.743l.001-.005c0-1.195-.969-2.163-2.162-2.163zM72.251 77.87v-55.743l.001-.005c0-1.195-.969-2.163-2.162-2.163l-.283.029v-.029h-10.337c-1.194 0-2.163.968-2.163 2.163v.005h-.001v55.743h.001l-.001.009c0 1.194.969 2.162 2.163 2.162h10.618c1.194 0 2.162-.968 2.162-2.162l.002-.009z"/></svg>

<?xml version="1.0" encoding="utf-8"?>
<!-- Generator: Adobe Illustrator 17.0.0, SVG Export Plug-In . SVG Version: 6.00 Build 0)  -->
<!DOCTYPE svg PUBLIC "-//W3C//DTD SVG 1.1//EN" "http://www.w3.org/Graphics/SVG/1.1/DTD/svg11.dtd">
<svg version="1.1" id="Layer_1" xmlns="http://www.w3.org/2000/svg" xmlns:xlink="http://www.w3.org/1999/xlink" x="0px" y="0px"
	 width="100px" height="100px" viewBox="0 0 100 100" enable-background="new 0 0 100 100" xml:space="preserve">
<g>
	<path d="M40.531,19.959c-0.097,0-0.19,0.016-0.283,0.029v-0.029H29.912h-0.001c-1.194,0-2.163,0.968-2.163,2.163
		c0,0.002,0,0.003,0,0.005h-0.001V77.87h0.001c0,0.003-0.001,0.006-0.001,0.009c0,1.194,0.969,2.162,2.163,2.162h0h0H40.53h0
		c1.194,0,2.162-0.968,2.162-2.162c0-0.003-0.001-0.006-0.001-0.009h0.001V22.127h0c0-0.002,0.001-0.004,0.001-0.005
		C42.693,20.927,41.724,19.959,40.531,19.959z"/>
	<path d="M72.251,77.87V22.127h0c0-0.002,0.001-0.004,0.001-0.005c0-1.195-0.969-2.163-2.162-2.163c-0.097,0-0.19,0.016-0.283,0.029
		v-0.029H59.47H59.47c-1.194,0-2.163,0.968-2.163,2.163c0,0.002,0,0.003,0,0.005h-0.001V77.87h0.001
		c0,0.003-0.001,0.006-0.001,0.009c0,1.194,0.969,2.162,2.163,2.162h0h0h10.618h0c1.194,0,2.162-0.968,2.162-2.162
		C72.251,77.876,72.25,77.873,72.251,77.87L72.251,77.87z"/>
</g>
</svg>
